public/heidi-logo-horizontal.svg

<svg id="LOGO" xmlns="http://www.w3.org/2000/svg" viewBox="0 0 526.41 218.11">
  <defs>
    <style>
      .cls-1 {
        fill: currentColor;
      }
    </style>
  </defs>
  <g id="WORDMARK">
    <path class="cls-1" d="M317.42,86.39c14.12,0,25.57,9.82,25.33,24.37,0,1.76-.46,3.01-1.39,3.82s-2.32,1.15-4.13,1.16h-33.15c-1.42,0-2.46.43-3.1,1.23-.61.76-.89,1.88-.8,3.36l.02.3.07.71c.73,7.33,3.16,12.61,6.63,16.08,3.58,3.58,8.26,5.25,13.33,5.25,5.59,0,11.32-2.03,16.17-7.19,1.43-1.45,3.2-1.56,4.34-.81,1.16.76,1.67,2.36.68,4.26-5.84,10.75-16.63,13.62-24.96,13.62-8.97,0-16.64-3.3-22.07-9.04-5.41-5.73-8.58-13.88-8.6-23.6h0v-.1c0-20.33,15.22-33.44,31.64-33.44h0ZM315.86,92.87c-5.86,0-12.97,3.9-14.92,13.02-.28,1.18-.11,2.08.35,2.67.45.59,1.22.91,2.17.91h21.78c1.14,0,1.96-.35,2.47-1,.51-.66.73-1.64.61-2.94-.33-4.55-2.06-7.7-4.39-9.73-2.34-2.03-5.29-2.92-8.06-2.92Z"/>
    <path class="cls-1" d="M361.29,87.67c2.11-.92,3.71-1.11,4.81-.57,1.19.58,1.74,1.96,1.74,4.02-.12,14.82-.12,27.03,0,39.73l.05,2.09c.05,1.97.11,3.58.23,4.91.15,1.77.41,3.04.86,3.99.79,1.65,2.18,2.37,4.8,3.15l1.2.35.4.13c.88.34,1.51.84,1.9,1.4.45.65.57,1.39.41,2.09-.32,1.4-1.77,2.61-4,2.64-8.16-.03-16.46-.03-24.84,0-2.17-.03-3.55-1.23-3.84-2.62-.3-1.39.49-2.93,2.57-3.61l1.15-.33c2.52-.75,3.96-1.47,4.81-3.12.49-.95.79-2.22.98-4.01.19-1.79.27-4.08.32-7.06l.04-2.29c.08-5.38.07-11.05-.04-16.83-.05-3.98-.41-6.26-1.43-7.87-1.01-1.61-2.68-2.58-5.37-3.93-1.66-.9-2.45-2-2.4-3.09.04-1.08.92-2.11,2.47-2.86l3.1-1.47c3.01-1.44,5.89-2.81,9.65-4.65l.43-.2h.02ZM360.2,59.74c5.31,0,9.62,3.98,9.62,8.89,0,5.3-4.27,9.64-9.62,9.64s-9.56-4.08-9.56-9.13,4.31-9.4,9.56-9.4Z"/>
    <path class="cls-1" d="M433.49,55.11c1.88-.94,3.5-1.27,4.69-.81,1.28.49,1.99,1.88,1.98,4.24l-.05,9.82c-.1,22.35-.1,41.06-.02,64.98v.44c.05,2.13.46,3.54,1.25,4.43.84.95,2.13,1.37,3.95,1.45h.22c1.06.1,1.86.44,2.4.95.59.54.88,1.26.93,2.01.07,1.4-.74,2.93-2.22,3.68l-.31.14c-1.92.78-3.95,1.74-5.99,2.7-2.04.95-4.08,1.92-6.02,2.69-1.8.7-3.29.87-4.37.41-1.09-.46-1.74-1.55-1.9-3.26l-.04-.3c-.25-1.47-.98-2.41-1.95-2.78-1.04-.39-2.4-.15-3.81.84-4.38,3.31-9.4,5.85-16.64,5.84-13.09,0-27.25-10.99-27.34-31.82h-.01s0-.22,0-.22v-.97c.22-9.93,3.55-18.26,9.07-24.15,5.7-6.09,13.75-9.58,23.12-9.57h.85c4.21.11,7.98.94,11.67,2.35,1.54.58,2.63.55,3.34.06s1.06-1.49,1.06-2.94v-10.01c-.04-2.27-.4-3.69-1.3-4.81-.97-1.2-2.58-2.08-5.16-3.26-1.77-.84-2.6-2-2.57-3.15.02-1.14.91-2.21,2.45-2.89l1.58-.67c3.7-1.6,7.37-3.39,10.75-5.22l.38-.2h.02ZM410.18,92.5c-4.51,0-8.92,1.44-12.19,5.15-3.28,3.71-5.44,9.71-5.44,18.85,0,8.55,1.97,15.4,5.33,20.1,3.34,4.68,8.04,7.23,13.55,7.26h.1c8.69,0,15.8-6.64,15.8-16.09v-20.42c0-6.6-6.42-14.84-17.14-14.84h0Z"/>
    <path class="cls-1" d="M467.14,87.67c2.11-.92,3.71-1.11,4.81-.57,1.19.58,1.74,1.96,1.74,4.02-.12,14.82-.12,27.03,0,39.73l.07,3.95c.02,1.16.04,2.17.09,3.06.08,1.77.24,3.04.59,3.98.35.94.9,1.58,1.79,2.1.78.46,1.82.82,3.2,1.22l.62.17.4.14c.88.34,1.51.84,1.9,1.4.45.65.57,1.39.41,2.09-.32,1.4-1.77,2.61-4,2.64-8.16-.03-14.91-.03-23.28,0-2.17-.03-3.55-1.23-3.84-2.62-.3-1.39.49-2.93,2.57-3.61l.59-.17c2.85-.81,4.25-1.5,4.97-3.28.4-.95.6-2.22.72-4.02.12-1.79.15-4.08.2-7.06l.04-2.29c.08-5.38.07-11.05-.04-16.83-.05-3.98-.41-6.26-1.43-7.87-1.01-1.61-2.68-2.58-5.37-3.93-1.66-.9-2.45-2-2.4-3.09.04-1.08.92-2.11,2.47-2.86,4.29-2.03,7.73-3.67,12.76-6.12l.43-.2h.01ZM466.06,59.74c5.32,0,9.62,3.98,9.62,8.89,0,5.3-4.27,9.64-9.62,9.64s-9.57-4.08-9.57-9.13,4.31-9.4,9.57-9.4Z"/>
    <path class="cls-1" d="M201.41,65.96l3.11.05c7.35.1,15.39.08,22.65-.05h.22c2.24.05,3.58,1.32,3.87,2.83.3,1.55-.51,3.31-2.5,4.16-3.39,1.28-5.3,2.2-6.38,3.6-1.08,1.4-1.34,3.31-1.38,6.63-.07,4.13-.1,7.96-.11,11.31v7.62c0,1.74,1.41,3.15,3.16,3.15h36.67c1.75,0,3.16-1.41,3.16-3.15v-10.3c-.02-1.82-.04-3.7-.07-5.6l-.04-2.88c-.04-3.34-.3-5.27-1.38-6.66-1.08-1.4-2.99-2.32-6.41-3.6-2.01-.86-2.81-2.61-2.5-4.16.3-1.55,1.69-2.85,4-2.84l3.2.05c7.53.1,15.41.08,22.72-.05h.22c2.22.05,3.55,1.31,3.86,2.8.32,1.53-.46,3.29-2.43,4.16-3.45,1.34-5.38,2.27-6.46,3.74-.95,1.28-1.26,2.99-1.37,5.78l-.03,1.27c-.23,17.63-.23,31.71,0,45.95l.05,2.13c.06,2,.12,3.62.26,4.95.18,1.77.47,3.02.97,3.95.99,1.87,2.81,2.56,6.35,3.74,1.1.39,1.82,1.04,2.21,1.79.39.75.46,1.6.26,2.38-.4,1.58-1.84,2.96-3.82,2.96-8.26-.12-17.29-.09-25.99,0-1.98,0-3.4-1.37-3.79-2.95-.2-.79-.14-1.63.24-2.38.38-.75,1.07-1.4,2.14-1.81l1.27-.45c2.77-1,4.29-1.76,5.15-3.37.5-.92.78-2.14.96-3.87.17-1.73.23-3.96.29-6.9l.06-2.99c.04-2.96.06-5.86.06-8.53v-2.8c0-1.74-1.42-3.15-3.16-3.15h-36.67c-1.75,0-3.16,1.4-3.16,3.15v.3c0,3.12,0,7.48.08,12.05l.04,1.97.04,2.09c.05,1.96.12,3.56.25,4.87.18,1.75.48,2.98.98,3.92.88,1.63,2.39,2.38,5.14,3.34l1.25.42.2.08c.96.39,1.6.99,1.97,1.69.4.74.47,1.58.28,2.37-.37,1.57-1.79,2.95-3.86,2.95-8.41-.12-17.29-.12-25.99,0-2.05.02-3.49-1.35-3.88-2.92-.19-.79-.12-1.63.27-2.37.39-.75,1.11-1.39,2.18-1.79l1.25-.43c2.75-.97,4.28-1.73,5.16-3.41.51-.96.81-2.23.99-4.03.19-1.79.26-4.11.32-7.14l.07-5.25c.14-12.37.11-25.62-.07-40.75l-.03-1.24c-.1-2.75-.43-4.44-1.38-5.72-1.1-1.47-3.04-2.41-6.52-3.76-1.91-.85-2.7-2.59-2.38-4.11.32-1.53,1.74-2.82,4.17-2.8h0Z"/>
  </g>
  <g id="SYMBOL">
    <path class="cls-1" d="M175.3,80.56c-.89-19.99-17.13-36.23-37.2-37.21-9.83-.48-18.91,2.65-26.03,8.17-1.52,1.18-3.68,1.18-5.2,0-7.12-5.52-16.2-8.65-26.03-8.17-20.07.98-36.31,17.22-37.21,37.21-.44,9.84,2.79,18.91,8.43,26,1.22,1.53,1.22,3.72,0,5.24-5.64,7.09-8.87,16.16-8.43,26,.89,19.99,17.13,36.23,37.2,37.21,9.83.48,18.91-2.65,26.03-8.17,1.52-1.18,3.68-1.18,5.2,0,7.12,5.52,16.2,8.65,26.03,8.17,20.07-.98,36.31-17.22,37.2-37.21.44-9.84-2.79-18.91-8.43-26-1.22-1.53-1.22-3.72,0-5.24,5.64-7.08,8.87-16.16,8.43-26h0ZM157.46,111c8.24,7.69,12.47,19.58,9.23,32.25-2.87,11.2-11.74,20.02-22.99,22.88-12.73,3.23-24.68-.99-32.4-9.2-.99-1.06-2.67-1.06-3.67,0-7.73,8.21-19.67,12.43-32.4,9.2-11.25-2.85-20.12-11.68-22.99-22.88-3.25-12.66.99-24.56,9.23-32.25,1.06-.99,1.06-2.66,0-3.65-8.24-7.69-12.47-19.58-9.23-32.25,2.87-11.2,11.74-20.02,22.99-22.88,12.73-3.23,24.68.99,32.4,9.2.99,1.06,2.67,1.06,3.67,0,7.73-8.21,19.67-12.43,32.4-9.2,11.25,2.85,20.13,11.68,22.99,22.88,3.25,12.66-.99,24.56-9.23,32.25-1.06.99-1.06,2.66,0,3.65Z"/>
    <path class="cls-1" d="M137.93,63.1c-6.74,0-12.66,3.39-16.25,9.3-2.83,4.66-4.69,9.83-5.28,20.35-.13,2.29-2.01,4.08-4.3,4.12-.86.01-1.74.02-2.65.02s-1.8,0-2.65-.02c-2.3-.03-4.18-1.83-4.3-4.12-.59-10.52-2.45-15.69-5.28-20.35-3.59-5.91-9.51-9.3-16.25-9.3-7.89,0-16.73,7.12-16.73,16.64,0,7.87,3.94,14.74,10.82,18.85,6.55,3.92,14.59,6.34,34.4,6.34s27.85-2.43,34.4-6.34c6.88-4.11,10.82-10.98,10.82-18.85,0-9.53-8.83-16.64-16.73-16.64h-.01ZM79.22,91.68c-5.99-3.59-6.89-9.02-6.89-11.94,0-4.62,4.74-8.58,8.63-8.58s7.17,1.87,9.31,5.41c2.21,3.65,3.68,7.9,4.15,17.03.07,1.38-1.15,2.48-2.52,2.27-6.71-.99-9.99-2.58-12.68-4.18h0ZM139.67,91.68c-2.69,1.61-5.97,3.2-12.68,4.18-1.38.2-2.59-.9-2.52-2.27.48-9.12,1.93-13.37,4.15-17.03,2.15-3.54,5.37-5.41,9.31-5.41s8.63,3.96,8.63,8.58c0,2.92-.89,8.36-6.89,11.94h0Z"/>
    <path class="cls-1" d="M80.98,155.25c6.74,0,12.66-3.39,16.25-9.3,2.83-4.66,4.69-9.83,5.28-20.35.13-2.29,2.01-4.08,4.3-4.12.86-.01,1.74-.02,2.65-.02s1.8,0,2.65.02c2.3.03,4.18,1.83,4.3,4.12.59,10.52,2.45,15.69,5.28,20.35,3.59,5.91,9.51,9.3,16.25,9.3,7.9,0,16.73-7.12,16.73-16.64,0-7.87-3.94-14.74-10.82-18.85-6.55-3.92-14.59-6.34-34.4-6.34s-27.85,2.43-34.4,6.34c-6.88,4.11-10.82,10.98-10.82,18.85,0,9.53,8.83,16.64,16.73,16.64h.01ZM139.71,126.66c5.99,3.59,6.89,9.02,6.89,11.94,0,4.62-4.74,8.58-8.63,8.58s-7.17-1.87-9.31-5.41c-2.21-3.65-3.68-7.9-4.15-17.03-.07-1.38,1.15-2.48,2.52-2.27,6.71.99,9.99,2.58,12.68,4.18h0ZM79.25,126.66c2.69-1.61,5.97-3.2,12.68-4.18,1.38-.2,2.59.9,2.52,2.27-.48,9.12-1.93,13.37-4.15,17.03-2.15,3.54-5.37,5.41-9.31,5.41s-8.63-3.96-8.63-8.58c0-2.92.89-8.36,6.89-11.94h0Z"/>
  </g>
</svg>

<?xml version="1.0" encoding="UTF-8" standalone="no"?>
<!DOCTYPE svg PUBLIC "-//W3C//DTD SVG 1.1//EN" "http://www.w3.org/Graphics/SVG/1.1/DTD/svg11.dtd">
<svg width="100%" height="100%" viewBox="0 0 527 219" version="1.1" xmlns="http://www.w3.org/2000/svg" xmlns:xlink="http://www.w3.org/1999/xlink" xml:space="preserve" xmlns:serif="http://www.serif.com/" style="fill-rule:evenodd;clip-rule:evenodd;stroke-linejoin:round;stroke-miterlimit:2;">
    <g id="SYMBOL" transform="matrix(1,0,0,1,-38,-0.125)">
        <path d="M175.3,80.56C174.41,60.57 158.17,44.33 138.1,43.35C128.27,42.87 119.19,46 112.07,51.52C110.55,52.7 108.39,52.7 106.87,51.52C99.75,46 90.67,42.87 80.84,43.35C60.77,44.33 44.53,60.57 43.63,80.56C43.19,90.4 46.42,99.47 52.06,106.56C53.28,108.09 53.28,110.28 52.06,111.8C46.42,118.89 43.19,127.96 43.63,137.8C44.52,157.79 60.76,174.03 80.83,175.01C90.66,175.49 99.74,172.36 106.86,166.84C108.38,165.66 110.54,165.66 112.06,166.84C119.18,172.36 128.26,175.49 138.09,175.01C158.16,174.03 174.4,157.79 175.29,137.8C175.73,127.96 172.5,118.89 166.86,111.8C165.64,110.27 165.64,108.08 166.86,106.56C172.5,99.48 175.73,90.4 175.29,80.56L175.3,80.56ZM157.46,111C165.7,118.69 169.93,130.58 166.69,143.25C163.82,154.45 154.95,163.27 143.7,166.13C130.97,169.36 119.02,165.14 111.3,156.93C110.31,155.87 108.63,155.87 107.63,156.93C99.9,165.14 87.96,169.36 75.23,166.13C63.98,163.28 55.11,154.45 52.24,143.25C48.99,130.59 53.23,118.69 61.47,111C62.53,110.01 62.53,108.34 61.47,107.35C53.23,99.66 49,87.77 52.24,75.1C55.11,63.9 63.98,55.08 75.23,52.22C87.96,48.99 99.91,53.21 107.63,61.42C108.62,62.48 110.3,62.48 111.3,61.42C119.03,53.21 130.97,48.99 143.7,52.22C154.95,55.07 163.83,63.9 166.69,75.1C169.94,87.76 165.7,99.66 157.46,107.35C156.4,108.34 156.4,110.01 157.46,111Z" style="fill-rule:nonzero;"/>
        <path d="M137.93,63.1C131.19,63.1 125.27,66.49 121.68,72.4C118.85,77.06 116.99,82.23 116.4,92.75C116.27,95.04 114.39,96.83 112.1,96.87C111.24,96.88 110.36,96.89 109.45,96.89C108.54,96.89 107.65,96.89 106.8,96.87C104.5,96.84 102.62,95.04 102.5,92.75C101.91,82.23 100.05,77.06 97.22,72.4C93.63,66.49 87.71,63.1 80.97,63.1C73.08,63.1 64.24,70.22 64.24,79.74C64.24,87.61 68.18,94.48 75.06,98.59C81.61,102.51 89.65,104.93 109.46,104.93C129.27,104.93 137.31,102.5 143.86,98.59C150.74,94.48 154.68,87.61 154.68,79.74C154.68,70.21 145.85,63.1 137.95,63.1L137.93,63.1ZM79.22,91.68C73.23,88.09 72.33,82.66 72.33,79.74C72.33,75.12 77.07,71.16 80.96,71.16C84.85,71.16 88.13,73.03 90.27,76.57C92.48,80.22 93.95,84.47 94.42,93.6C94.49,94.98 93.27,96.08 91.9,95.87C85.19,94.88 81.91,93.29 79.22,91.69L79.22,91.68ZM139.67,91.68C136.98,93.29 133.7,94.88 126.99,95.86C125.61,96.06 124.4,94.96 124.47,93.59C124.95,84.47 126.4,80.22 128.62,76.56C130.77,73.02 133.99,71.15 137.93,71.15C141.87,71.15 146.56,75.11 146.56,79.73C146.56,82.65 145.67,88.09 139.67,91.67L139.67,91.68Z" style="fill-rule:nonzero;"/>
        <path d="M80.98,155.25C87.72,155.25 93.64,151.86 97.23,145.95C100.06,141.29 101.92,136.12 102.51,125.6C102.64,123.31 104.52,121.52 106.81,121.48C107.67,121.47 108.55,121.46 109.46,121.46C110.37,121.46 111.26,121.46 112.11,121.48C114.41,121.51 116.29,123.31 116.41,125.6C117,136.12 118.86,141.29 121.69,145.95C125.28,151.86 131.2,155.25 137.94,155.25C145.84,155.25 154.67,148.13 154.67,138.61C154.67,130.74 150.73,123.87 143.85,119.76C137.3,115.84 129.26,113.42 109.45,113.42C89.64,113.42 81.6,115.85 75.05,119.76C68.17,123.87 64.23,130.74 64.23,138.61C64.23,148.14 73.06,155.25 80.96,155.25L80.98,155.25ZM139.71,126.66C145.7,130.25 146.6,135.68 146.6,138.6C146.6,143.22 141.86,147.18 137.97,147.18C134.08,147.18 130.8,145.31 128.66,141.77C126.45,138.12 124.98,133.87 124.51,124.74C124.44,123.36 125.66,122.26 127.03,122.47C133.74,123.46 137.02,125.05 139.71,126.65L139.71,126.66ZM79.25,126.66C81.94,125.05 85.22,123.46 91.93,122.48C93.31,122.28 94.52,123.38 94.45,124.75C93.97,133.87 92.52,138.12 90.3,141.78C88.15,145.32 84.93,147.19 80.99,147.19C77.05,147.19 72.36,143.23 72.36,138.61C72.36,135.69 73.25,130.25 79.25,126.67L79.25,126.66Z" style="fill-rule:nonzero;"/>
    </g>
    <g transform="matrix(0.998976,0,0,0.998976,-57.7005,32.8003)">
        <text x="195.444px" y="112.005px" style="font-family:'Georgia', serif;font-size:96px;">HealXYZ</text>
    </g>
</svg>
